local/share/icons/dracula-icons-main/scalable/apps/preferences-desktop-locale.svg

<?xml version="1.0" encoding="UTF-8"?>
<svg xmlns="http://www.w3.org/2000/svg" xmlns:xlink="http://www.w3.org/1999/xlink" width="64" height="64" viewBox="0 0 64 64">
<path fill-rule="nonzero" fill="rgb(97.647059%, 97.647059%, 97.647059%)" fill-opacity="1" d="M 15.609375 8.464844 C 15.609375 12.410156 12.410156 15.609375 8.464844 15.609375 C 4.519531 15.609375 1.324219 12.410156 1.324219 8.464844 C 1.324219 4.519531 4.519531 1.324219 8.464844 1.324219 C 12.410156 1.324219 15.609375 4.519531 15.609375 8.464844 Z M 15.609375 8.464844 "/>
<path fill-rule="nonzero" fill="rgb(80%, 80%, 80%)" fill-opacity="1" d="M 5.984375 4.761719 C 6.351562 5.191406 6.652344 5.644531 6.886719 6.117188 L 6.273438 6.46875 C 6.0625 5.996094 5.769531 5.546875 5.40625 5.117188 Z M 4.761719 7.144531 L 6.5 7.144531 L 6.5 10.882812 L 7.179688 10.140625 L 7.597656 10.527344 C 7.296875 10.9375 6.886719 11.34375 6.371094 11.75 L 5.890625 11.332031 L 5.890625 7.726562 L 4.761719 7.726562 Z M 7.757812 6.535156 L 8.789062 6.535156 L 8.980469 5.664062 L 7.46875 5.664062 L 7.46875 5.085938 L 12.007812 5.085938 L 12.007812 5.664062 L 9.625 5.664062 L 9.433594 6.535156 L 11.398438 6.535156 L 11.398438 8.207031 L 12.171875 8.207031 L 12.171875 8.789062 L 7.339844 8.789062 L 7.339844 8.207031 L 8.402344 8.207031 L 8.628906 7.113281 L 7.757812 7.113281 Z M 9.046875 8.207031 L 10.753906 8.207031 L 10.753906 7.113281 L 9.269531 7.113281 Z M 11.78125 9.367188 L 11.78125 12.171875 L 11.140625 12.171875 L 11.140625 11.75 L 8.464844 11.75 L 8.464844 12.171875 L 7.824219 12.171875 L 7.824219 9.367188 Z M 8.464844 11.171875 L 11.140625 11.171875 L 11.140625 9.949219 L 8.464844 9.949219 Z M 8.464844 11.171875 "/>
<path fill-rule="nonzero" fill="rgb(28.627451%, 54.901961%, 84.705882%)" fill-opacity="1" d="M 15.875 11.90625 C 15.875 14.242188 13.980469 16.140625 11.640625 16.140625 C 9.304688 16.140625 7.40625 14.242188 7.40625 11.90625 C 7.40625 9.566406 9.304688 7.671875 11.640625 7.671875 C 13.980469 7.671875 15.875 9.566406 15.875 11.90625 Z M 15.875 11.90625 "/>
<path fill-rule="nonzero" fill="rgb(100%, 100%, 100%)" fill-opacity="1" d="M 11.640625 10.160156 L 10.765625 12.53125 L 12.519531 12.53125 Z M 11.277344 9.523438 L 12.007812 9.523438 L 13.824219 14.289062 L 13.152344 14.289062 L 12.71875 13.066406 L 10.574219 13.066406 L 10.136719 14.289062 L 9.460938 14.289062 Z M 11.277344 9.523438 "/>
</svg>

<svg width="64" height="64" version="1.1" viewBox="0 0 16.933 16.933" xmlns="http://www.w3.org/2000/svg">
 <circle cx="8.4665" cy="8.4665" r="7.1436" fill="#f9f9f9" style="paint-order:stroke fill markers"/>
 <path d="m5.9859 4.7624q0.54816 0.64414 0.90203 1.353l-0.61292 0.35387q-0.32149-0.70774-0.86849-1.353zm-1.2235 2.3834h1.7393v3.7365l0.67652-0.74012 0.41863 0.38625q-0.45101 0.61176-1.2247 1.2235l-0.48224-0.41863v-3.6081h-1.1275zm2.9952-0.61176h1.0304l0.19313-0.86965h-1.5138v-0.57938h4.5414v0.57938h-2.3823l-0.19428 0.86965h1.966v1.6745h0.77251v0.58054h-4.8316v-0.58054h1.0628l0.22551-1.094h-0.86965zm1.2883 1.6745h1.7069v-1.094h-1.4814zm2.7373 1.1599v2.8021h-0.64414v-0.41863h-2.6725v0.41863h-0.64414v-2.8021zm-3.3167 1.8041h2.6725v-1.2247h-2.6725z" fill="#ccc" font-size="7.13" font-weight="400" letter-spacing="0" stroke-width=".20585" word-spacing="0" aria-label="语"/>
 <circle cx="11.641" cy="11.906" r="4.2333" fill="#498cd8" style="paint-order:stroke fill markers"/>
 <path d="m11.641 10.16-0.87406 2.3702h1.7509zm-0.36373-0.63493h0.73021l1.815 4.7624h-0.66883l-0.43428-1.2213h-2.1467l-0.43428 1.2213h-0.6789z" fill="#fff" font-size="7.13" font-weight="400" letter-spacing="0" stroke-width=".16308" word-spacing="0" aria-label="A"/>
</svg>
